icons/svg/apple.svg

<svg width="24" height="24" viewBox="0 0 24 24" fill="none" xmlns="http://www.w3.org/2000/svg">
<path fill-rule="evenodd" clip-rule="evenodd" d="M10.1023 7.77928C9.72809 7.66439 9.32803 7.61853 8.91653 7.61853C6.99894 7.61853 4.75 9.31448 4.75 12.9778C4.75 16.3385 7.10798 20.1875 8.55135 20.8003C8.87938 20.9396 9.28203 21.0269 9.6349 20.9926C10.3423 20.9237 10.9833 20.5716 11.6583 20.3705C11.8864 20.3331 12.1588 20.2974 12.3767 20.2956C12.6163 20.2937 12.8867 20.3557 13.1508 20.4162C13.866 20.5802 14.656 21.0655 15.4058 20.9926C15.6726 20.9666 16.0392 20.8062 16.152 20.7544C16.1751 20.7437 16.1979 20.7342 16.2215 20.7247C17.0725 20.3805 18.21 18.8982 18.9809 17.0213C19.1435 16.6255 18.9288 16.1882 18.5773 15.9441C17.5781 15.25 16.9144 14.0103 16.9144 12.7495C16.9144 11.7801 17.2267 10.8949 17.8209 10.2259C17.8276 10.2184 17.834 10.211 17.8405 10.2033C17.8903 10.1438 18.1259 9.86424 18.2912 9.70334V9.70334C18.5462 9.45511 18.6175 9.05808 18.373 8.79948C17.5653 7.94507 16.5406 7.5224 15.6093 7.5224C15.2357 7.5224 14.8828 7.56393 14.5562 7.66286C14.5383 7.66828 14.5208 7.67318 14.5027 7.6776C14.3648 7.71121 13.7245 7.87036 13.2806 8.03309C13.0236 8.10427 12.646 8.1999 12.4715 8.2437C12.4085 8.25952 12.3438 8.2679 12.2789 8.26583C11.5441 8.24243 10.8089 7.96316 10.1023 7.77928Z" stroke="currentColor" stroke-width="1.5" stroke-linejoin="round"/>
<path d="M13.8609 5.17807C13.1265 6.05644 11.8854 6.22469 11.8854 6.22469C11.8854 6.22469 11.835 4.96881 12.5694 4.09044C13.3038 3.21206 14.5448 3.04382 14.5448 3.04382C14.5448 3.04382 14.5953 4.29969 13.8609 5.17807Z" fill="currentColor" stroke="currentColor" stroke-linejoin="round"/>
</svg>

<svg xmlns="http://www.w3.org/2000/svg" width="24" height="24" fill="none" viewBox="0 0 24 24"><path stroke="currentColor" stroke-linejoin="round" stroke-width="1.5" d="M10.102 7.78a4 4 0 0 0-1.185-.161c-1.918 0-4.167 1.695-4.167 5.359 0 3.36 2.358 7.21 3.801 7.822.328.14.731.227 1.084.193.707-.07 1.348-.421 2.023-.622.228-.038.5-.074.719-.075.24-.002.51.06.774.12.715.164 1.505.65 2.255.577.267-.026.633-.187.746-.239l.07-.03c.85-.343 1.988-1.826 2.759-3.703.162-.396-.052-.833-.404-1.077-.999-.694-1.663-1.934-1.663-3.195 0-.969.313-1.854.907-2.523l.02-.023a8 8 0 0 1 .45-.5c.255-.248.326-.645.082-.904-.808-.854-1.832-1.277-2.764-1.277a3.6 3.6 0 0 0-1.106.156c-.138.033-.778.192-1.222.355-.257.071-.635.167-.81.21a.7.7 0 0 1-.192.023c-.735-.024-1.47-.303-2.177-.487Z" clip-rule="evenodd"/><path fill="currentColor" stroke="currentColor" stroke-linejoin="round" d="M13.86 5.178c-.733.878-1.975 1.047-1.975 1.047s-.05-1.256.684-2.135 1.976-1.046 1.976-1.046.05 1.256-.684 2.134Z"/></svg>
